X:394
T:South Downs Jig
C:Jim Harding
M:6/8
L:1/8
K:G
d | dcA G3 | EFG AFE | DEF GAB | cde d2 d | 
dcA G3 | EFG AFE | DEF GAB | cAF G2 :|| 
B | Bcd e2 c | d2 B c2 A | Bcd e2 c |[ M:9/8]d2 B c2 B A3 | 
[M:6/8]DGF E3 | cBA FED | DEF GAB | cAF G2 :|| 

